src/assets/outline/VolumeLow.svg

<svg width="24" height="24" viewBox="0 0 24 24"  xmlns="http://www.w3.org/2000/svg">
<path d="M13.8801 20.5901C13.0901 20.5901 12.2201 20.3101 11.3501 19.7601L8.43008 17.9301C8.23008 17.8101 8.00008 17.7401 7.77008 17.7401H6.33008C3.91008 17.7401 2.58008 16.4101 2.58008 13.9901V9.99011C2.58008 7.57011 3.91008 6.24011 6.33008 6.24011H7.76008C7.99008 6.24011 8.22008 6.17011 8.42008 6.05011L11.3401 4.22011C12.8001 3.31011 14.2201 3.14011 15.3401 3.76011C16.4601 4.38011 17.0701 5.67011 17.0701 7.40011V16.5701C17.0701 18.2901 16.4501 19.5901 15.3401 20.2101C14.9001 20.4701 14.4101 20.5901 13.8801 20.5901ZM6.33008 7.75011C4.75008 7.75011 4.08008 8.42011 4.08008 10.0001V14.0001C4.08008 15.5801 4.75008 16.2501 6.33008 16.2501H7.76008C8.28008 16.2501 8.78008 16.3901 9.22008 16.6701L12.1401 18.5001C13.1101 19.1001 14.0101 19.2601 14.6201 18.9201C15.2301 18.5801 15.5801 17.7301 15.5801 16.6001V7.41011C15.5801 6.27011 15.2301 5.42011 14.6201 5.09011C14.0101 4.75011 13.1101 4.90011 12.1401 5.51011L9.22008 7.33011C8.78008 7.61011 8.28008 7.75011 7.76008 7.75011H6.33008Z" />
<path d="M19.3299 16.75C19.1699 16.75 19.0199 16.7 18.8799 16.6C18.5499 16.35 18.4799 15.88 18.7299 15.55C20.2999 13.46 20.2999 10.54 18.7299 8.45003C18.4799 8.12003 18.5499 7.65003 18.8799 7.40003C19.2099 7.15003 19.6799 7.22003 19.9299 7.55003C21.8999 10.17 21.8999 13.83 19.9299 16.45C19.7899 16.65 19.5599 16.75 19.3299 16.75Z" />
</svg>

<?xml version="1.0" encoding="UTF-8"?>
<svg width="24" height="24" viewBox="0 0 24 24" xmlns="http://www.w3.org/2000/svg">
 <path d="m13.88 20.59c-0.79 0-1.66-0.28-2.53-0.83l-2.92-1.83c-0.2-0.12-0.43-0.19-0.66-0.19h-1.44c-2.42 0-3.75-1.33-3.75-3.75v-4c0-2.42 1.33-3.75 3.75-3.75h1.43c0.23 0 0.46-0.07 0.66-0.19l2.92-1.83c1.46-0.91 2.88-1.08 4-0.46s1.73 1.91 1.73 3.64v9.17c0 1.72-0.62 3.02-1.73 3.64-0.44 0.26-0.93 0.38-1.46 0.38zm-7.55-12.84c-1.58 0-2.25 0.67-2.25 2.25v4c0 1.58 0.67 2.25 2.25 2.25h1.43c0.52 0 1.02 0.14 1.46 0.42l2.92 1.83c0.97 0.6 1.87 0.76 2.48 0.42s0.96-1.19 0.96-2.32v-9.19c0-1.14-0.35-1.99-0.96-2.32-0.61-0.34-1.51-0.19-2.48 0.42l-2.92 1.82c-0.44 0.28-0.94 0.42-1.46 0.42h-1.43z"/>
 <path d="m19.33 16.75c-0.16 0-0.31-0.05-0.45-0.15-0.33-0.25-0.4-0.72-0.15-1.05 1.57-2.09 1.57-5.01 0-7.1-0.25-0.33-0.18-0.8 0.15-1.05s0.8-0.18 1.05 0.15c1.97 2.62 1.97 6.28 0 8.9-0.14 0.2-0.37 0.3-0.6 0.3z"/>
</svg>
